static/assets/images/networks/canto-mono.svg

<svg width="238" height="256" viewBox="0 0 238 256" fill="none" xmlns="http://www.w3.org/2000/svg">
<path fill-rule="evenodd" clip-rule="evenodd" d="M238 0V256L44.625 255.998V210.821H0V45.1765H44.625V0H238ZM81.8102 45.1786H193.372V90.355H81.8102V45.1786ZM193.372 173.179H81.8102V90.355L37.1852 90.3571V173.18L81.8102 173.179V218.355H193.372V173.179Z" fill="black"/>
</svg>

<svg xmlns="http://www.w3.org/2000/svg" fill="none" viewBox="0 0 238 256"><path fill="#000" fill-rule="evenodd" d="M238 0v256l-193.375-.002v-45.177H0V45.177h44.625V0zM81.81 45.179h111.562v45.176H81.81zm111.562 128H81.81V90.355l-44.625.002v82.823l44.625-.001v45.176h111.562z" clip-rule="evenodd"/></svg>
